React/eventplus/src/assets/images/error-illustration.svg

<svg xmlns="http://www.w3.org/2000/svg" width="586.47858" height="659.29778" viewBox="0 0 586.47858 659.29778" xmlns:xlink="http://www.w3.org/1999/xlink"><circle cx="332.47856" cy="254" r="254.00001" fill="#f2f2f2"/><path d="M498.46363,113.58835H33.17063c-.99774-.02133-1.78931-.84746-1.76797-1.84521,.02069-.96771,.80026-1.74727,1.76797-1.76796H498.46363c.99774,.02133,1.78931,.84746,1.76794,1.84521-.02069,.96771-.80023,1.74727-1.76794,1.76796Z" fill="#cacaca"/><rect x="193.77441" y="174.47256" width="163.61147" height="34.98639" rx="17.49318" ry="17.49318" fill="#fff"/><path d="M128.17493,244.44534H422.98542c9.66122,0,17.49316,7.83197,17.49316,17.49319h0c0,9.66122-7.83194,17.49319-17.49316,17.49319H128.17493c-9.66122,0-17.49318-7.83197-17.49318-17.49319h0c0-9.66122,7.83196-17.49319,17.49318-17.49319Z" fill="#fff"/><path d="M128.17493,314.41812H422.98542c9.66122,0,17.49316,7.83197,17.49316,17.49319h0c0,9.66122-7.83194,17.49319-17.49316,17.49319H128.17493c-9.66122,0-17.49318-7.83197-17.49318-17.49319h0c0-9.66122,7.83196-17.49319,17.49318-17.49319Z" fill="#fff"/><path d="M91.64085,657.75932l-.69385-.06793c-23.54068-2.42871-44.82135-15.08929-58.18845-34.61835-3.66138-5.44159-6.62299-11.32251-8.815-17.50409l-.21069-.58966,.62375-.05048c7.44699-.59924,15.09732-1.86292,18.49585-2.46417l-21.91473-7.42511-.1355-.65033c-1.29926-6.10406,1.24612-12.38458,6.4285-15.86176,5.19641-3.64447,12.08731-3.76111,17.40405-.29449,2.38599,1.52399,4.88162,3.03339,7.29489,4.49359,8.29321,5.01636,16.8688,10.20337,23.29828,17.30121,9.74951,10.97778,14.02298,25.76984,11.63,40.25562l4.7829,17.47595Z" fill="#f2f2f2"/><polygon points="171.30016 646.86102 182.10017 646.85999 187.23916 605.198 171.29716 605.19897 171.30016 646.86102" fill="#a0616a"/><path d="M170.9192,658.12816l33.21436-.00122v-.41998c-.00049-7.13965-5.78833-12.92737-12.92798-12.92773h-.00079l-6.06702-4.60278-11.3197,4.60345-2.89941,.00012,.00055,13.34814Z" fill="#2f2e41"/><polygon points="84.74116 616.94501 93.38016 623.42603 122.49316 593.185 109.74116 583.61902 84.74116 616.94501" fill="#a0616a"/><path d="M77.67448,625.72966l26.569,19.93188,.25208-.336c4.2843-5.71136,3.12799-13.81433-2.58279-18.09937l-.00064-.00049-2.09079-7.32275-11.81735-3.11102-2.31931-1.73993-8.01019,10.67767Z" fill="#2f2e41"/><path d="M120.64463,451.35271s.59625,16.26422,1.3483,29.30737c.12335,2.13916-4.88821,4.46301-4.75842,6.7901,.08609,1.54395,1.02808,3.04486,1.1156,4.65472,.09235,1.69897-1.20822,3.20282-1.1156,4.95984,.09052,1.71667,1.57422,3.6853,1.66373,5.44244,.96317,18.9093,4.45459,41.54633,.9584,47.87439-1.72299,3.11871-23.68533,46.32446-23.68533,46.32446,0,0,12.23666,18.35498,15.73285,12.23663,4.61771-8.08099,40.20615-45.88745,40.20615-53.10712,0-7.21088,8.23346-61.25323,8.23346-61.25323l5.74103,31.98169,2.63239,6.33655-.82715,3.71997,1.70117,5.02045,.09192,4.96838,1.65619,9.22614s-4.98199,71.88159-2.17633,73.88312c2.81439,2.01038,16.44086,5.62018,18.04901,2.01038,1.59955-3.6098,12.0108-75.01947,12.0108-75.01947,0,0,1.6781-32.72424,3.49622-63.14111,.1048-1.76556,1.34607-3.89825,1.4422-5.63763,.11365-2.01898-.67297-4.64111-.56818-6.599,.11365-2.24628,1.11005-3.82831,1.20618-5.97852,.74292-16.6156-3.42761-36.84912-4.7561-38.84192-4.01202-6.01343-7.62177-10.82074-7.62177-10.82074,0,0-54.03558-17.75403-68.47485,.28625l-3.30185,25.37585Z" fill="#2f2e41"/><path d="M174.53779,284.10378l-21.4209-4.28418-9.9964,13.56656h0c-18.65262,18.34058-18.93359,34.52753-15.60379,60.47382v36.41553l-2.41,24.41187s-8.53156,17.84521,.26788,22.00006,66.59857,3.80066,72.117,2.14209,.73517-3.69482-.71399-11.4245c-2.72211-14.51929-.90131-7.51562-.71399-12.13849,2.68585-66.31363-3.57013-93.5379-4.20544-100.69376l-10.89398-19.75858-6.42639-10.71042Z" fill="#3f3d56"/><path d="M287.43909,337.57097c-2.23248,4.23007-7.47144,5.84943-11.70148,3.61694-.45099-.23804-.88013-.51541-1.28229-.82895l-46.26044,29.37308,.13336-15.9924,44.93842-26.07846c3.20093-3.58887,8.70514-3.90332,12.29401-.70239,3.00305,2.67844,3.7796,7.0657,1.87842,10.61218Z" fill="#a0616a"/><path d="M157.62488,302.62425l-5.26666-.55807c-4.86633-.50473-9.64093,1.57941-12.57947,5.491-1.12549,1.48346-1.9339,3.18253-2.37491,4.99164l-.00317,.01447c-1.32108,5.44534,.75095,11.15201,5.25803,14.48117l18.19031,13.41101c12.76544,17.24899,36.75653,28.69272,64.89832,37.98978l43.74274-27.16666-15.47186-18.73843-30.00336,16.0798-44.59833-34.52374-.0257-.02075-16.97424-10.936-4.79169-.5152Z" fill="#3f3d56"/><circle cx="167.29993" cy="248.60526" r="24.9798" fill="#a0616a"/><path d="M167.8769,273.59047c-.20135,.00662-.4032,.01108-.6048,.01657-.0863,.22388-.17938,.44583-.2868,.66357l.8916-.68015Z" fill="#2f2e41"/><path d="M174.73243,249.29823c.03918,.24612,.09912,.48846,.17914,.72449-.03302-.24731-.09308-.49026-.17914-.72449Z" fill="#2f2e41"/><path d="M192.59852,224.6942c-1.0282,3.19272-1.94586-.85715-5.32825-.12869-4.06885,.87625-8.80377,.57532-12.13586-1.91879-4.96478-3.64273-11.39874-4.62335-17.22333-2.62509-5.70154,2.01706-15.25348,3.43933-16.73907,9.30179-.51642,2.03781-.7215,4.24933-1.97321,5.9382-1.09436,1.47662-2.82166,2.31854-4.26608,3.45499-4.87726,3.83743-1.14954,14.73981,1.15881,20.50046,2.30838,5.76065,7.60355,9.95721,13.42526,12.10678,5.63281,2.07977,11.7464,2.44662,17.75531,2.28317,1.04517-2.7106,.59363-5.84137-.26874-8.65134-.93359-3.04199-2.31592-5.97791-2.70593-9.13599s.46643-6.74527,3.11444-8.50986c2.4339-1.62192,6.39465-.63388,7.32062,1.98843-.54028-3.27841,2.7807-6.4509,6.20508-7.00882,3.67651-.599,7.35291,.72833,11.01886,1.38901s2.36475-14.77301,.64209-18.98425Z" fill="#2f2e41"/><circle cx="281.3585" cy="285.71051" r="51.12006" transform="translate(-26.58509 542.54478) rotate(-85.26884)" fill="#b51d44"/><path d="M294.78675,264.41051l-13.42828,13.42828-13.42828-13.42828c-2.17371-2.17374-5.69806-2.17374-7.87177,0s-2.17371,5.69803,0,7.87177l13.42828,13.42828-13.42828,13.42828c-2.17169,2.17575-2.1684,5.70007,.00739,7.87177,2.17285,2.16879,5.69153,2.16879,7.86438-.00003l13.42828-13.42828,13.42828,13.42828c2.17578,2.17169,5.70007,2.1684,7.87177-.00735,2.16882-2.17288,2.16882-5.6915,0-7.86438l-13.42828-13.42828,13.42828-13.42828c2.17371-2.17374,2.17371-5.69803,0-7.87177s-5.69806-2.17374-7.87177,0h0Z" fill="#fff"/><path d="M261.21387,242.74385c1.5069,4.53946-.95154,9.44101-5.49097,10.94791-.48401,.16064-.9812,.27823-1.4859,.35141l-10.83051,53.71692-11.44788-11.16785,12.29266-50.48209c-.37366-4.7944,3.21008-8.98395,8.00452-9.3576,4.01166-.31265,7.71509,2.16425,8.95807,5.9913Z" fill="#a0616a"/><path d="M146.12519,312.22478l-4.04883,3.41412c-3.73322,3.16214-5.53476,8.05035-4.74649,12.87888,.29129,1.83917,.95773,3.59879,1.95786,5.16949l.00824,.0123c3.01477,4.72311,8.5672,7.17865,14.08978,6.23117l22.27075-3.84171c21.28461,2.72995,46.15155-6.65967,72.34302-20.53055l10.67969-50.37274-24.23297-1.80811-9.16821,32.78271-55.78815,8.28149-.03278,.00415-19.64294,4.67767-3.68896,3.1011Z" fill="#3f3d56"/><path d="M272.93684,658.99046l-271.75,.30731c-.65759-.00214-1.18896-.53693-1.18683-1.19452,.00211-.6546,.53223-1.18469,1.18683-1.18683l271.75-.30731c.65759,.00214,1.18896,.53693,1.18683,1.19452-.00208,.6546-.53223,1.18469-1.18683,1.18683Z" fill="#cacaca"/><g><ellipse cx="56.77685" cy="82.05834" rx="8.45661" ry="8.64507" fill="#3f3d56"/><ellipse cx="85.9906" cy="82.05834" rx="8.45661" ry="8.64507" fill="#3f3d56"/><ellipse cx="115.20435" cy="82.05834" rx="8.45661" ry="8.64507" fill="#3f3d56"/><path d="M148.51577,88.89113c-.25977,0-.51904-.10059-.71484-.30078l-5.70605-5.83301c-.38037-.38867-.38037-1.00977,0-1.39844l5.70605-5.83252c.38721-.39453,1.021-.40088,1.41406-.01562,.39502,.38623,.40186,1.01953,.01562,1.41406l-5.02197,5.1333,5.02197,5.13379c.38623,.39453,.37939,1.02783-.01562,1.41406-.19434,.19043-.44678,.28516-.69922,.28516Z" fill="#3f3d56"/><path d="M158.10415,88.89113c-.25244,0-.50488-.09473-.69922-.28516-.39502-.38623-.40186-1.01904-.01562-1.41406l5.02148-5.13379-5.02148-5.1333c-.38623-.39453-.37939-1.02783,.01562-1.41406,.39404-.38672,1.02783-.37939,1.41406,.01562l5.70557,5.83252c.38037,.38867,.38037,1.00977,0,1.39844l-5.70557,5.83301c-.1958,.2002-.45508,.30078-.71484,.30078Z" fill="#3f3d56"/><path d="M456.61398,74.41416h-10.60999c-1.21002,0-2.19,.97998-2.19,2.19v10.62c0,1.21002,.97998,2.19,2.19,2.19h10.60999c1.21002,0,2.20001-.97998,2.20001-2.19v-10.62c0-1.21002-.98999-2.19-2.20001-2.19Z" fill="#3f3d56"/><path d="M430.61398,74.41416h-10.60999c-1.21002,0-2.19,.97998-2.19,2.19v10.62c0,1.21002,.97998,2.19,2.19,2.19h10.60999c1.21002,0,2.20001-.97998,2.20001-2.19v-10.62c0-1.21002-.98999-2.19-2.20001-2.19Z" fill="#3f3d56"/><path d="M481.11398,74.91416h-10.60999c-1.21002,0-2.19,.97998-2.19,2.19v10.62c0,1.21002,.97998,2.19,2.19,2.19h10.60999c1.21002,0,2.20001-.97998,2.20001-2.19v-10.62c0-1.21002-.98999-2.19-2.20001-2.19Z" fill="#3f3d56"/><path d="M321.19229,78.95414h-84.81c-1.48004,0-2.67004,1.20001-2.67004,2.67004s1.19,2.66998,2.67004,2.66998h84.81c1.46997,0,2.66998-1.20001,2.66998-2.66998s-1.20001-2.67004-2.66998-2.67004Z" fill="#3f3d56"/></g></svg>

<svg width="587" height="660" viewBox="0 0 587 660" fill="none" xmlns="http://www.w3.org/2000/svg">
<g clip-path="url(#clip0_1928_282)">
<path d="M584.979 254C584.979 393.452 471.93 506.5 332.479 506.5C193.027 506.5 79.9785 393.452 79.9785 254C79.9785 114.548 193.027 1.5 332.479 1.5C471.93 1.5 584.979 114.548 584.979 254Z" fill="#F4F900" stroke="black" stroke-width="3"/>
<path d="M498.464 113.588H33.1707C32.173 113.567 31.3814 112.741 31.4028 111.743C31.4235 110.775 32.203 109.996 33.1707 109.975H498.464C499.461 109.996 500.253 110.823 500.232 111.82C500.211 112.788 499.431 113.568 498.464 113.588Z" fill="black"/>
<path d="M339.893 174.473H211.268C201.606 174.473 193.774 182.305 193.774 191.966V191.966C193.774 201.627 201.606 209.459 211.268 209.459H339.893C349.554 209.459 357.386 201.627 357.386 191.966C357.386 182.305 349.554 174.473 339.893 174.473Z" fill="black"/>
<path d="M128.175 244.445H422.985C432.647 244.445 440.478 252.277 440.478 261.939C440.478 271.6 432.647 279.432 422.985 279.432H128.175C118.514 279.432 110.682 271.6 110.682 261.939C110.682 252.277 118.514 244.445 128.175 244.445Z" fill="black"/>
<path d="M128.175 314.418H422.985C432.647 314.418 440.478 322.25 440.478 331.911C440.478 341.572 432.647 349.404 422.985 349.404H128.175C118.514 349.404 110.682 341.572 110.682 331.911C110.682 322.25 118.514 314.418 128.175 314.418Z" fill="black"/>
<path d="M91.6408 657.759L90.9469 657.691C67.4063 655.263 46.1256 642.602 32.7585 623.073C29.0971 617.632 26.1355 611.751 23.9435 605.569L23.7328 604.979L24.3566 604.929C31.8035 604.33 39.4539 603.066 42.8524 602.465L20.9377 595.04L20.8022 594.389C19.5029 588.285 22.0483 582.005 27.2307 578.528C32.4271 574.883 39.318 574.766 44.6347 578.233C47.0207 579.757 49.5163 581.266 51.9296 582.727C60.2228 587.743 68.7984 592.93 75.2279 600.028C84.9774 611.006 89.2509 625.798 86.8579 640.283L91.6408 657.759Z" fill="#F4F900"/>
<path d="M171.3 646.861L182.1 646.86L187.239 605.198L171.297 605.199L171.3 646.861Z" fill="#A0616A"/>
<path d="M170.919 658.128L204.134 658.127V657.707C204.133 650.567 198.345 644.779 191.206 644.779L185.138 640.176L173.818 644.78L170.919 644.78L170.919 658.128Z" fill="#2F2E41"/>
<path d="M84.7412 616.945L93.3802 623.426L122.493 593.185L109.741 583.619L84.7412 616.945Z" fill="#A0616A"/>
<path d="M77.6746 625.729L104.244 645.661L104.496 645.325C108.78 639.614 107.624 631.511 101.913 627.226L99.8214 619.903L88.0041 616.792L85.6848 615.052L77.6746 625.729Z" fill="#2F2E41"/>
<path d="M120.645 451.353C120.645 451.353 121.241 467.617 121.993 480.66C122.116 482.799 117.105 485.123 117.235 487.45C117.321 488.994 118.263 490.495 118.35 492.105C118.443 493.804 117.142 495.308 117.235 497.065C117.325 498.782 118.809 500.75 118.898 502.507C119.861 521.417 123.353 544.054 119.857 550.382C118.134 553.501 96.1714 596.706 96.1714 596.706C96.1714 596.706 108.408 615.061 111.904 608.943C116.522 600.862 152.11 563.055 152.11 555.836C152.11 548.625 160.344 494.583 160.344 494.583L166.085 526.564L168.717 532.901L167.89 536.621L169.591 541.641L169.683 546.61L171.339 555.836C171.339 555.836 166.357 627.717 169.163 629.719C171.977 631.729 185.604 635.339 187.212 631.729C188.812 628.119 199.223 556.71 199.223 556.71C199.223 556.71 200.901 523.986 202.719 493.569C202.824 491.803 204.065 489.67 204.161 487.931C204.275 485.912 203.488 483.29 203.593 481.332C203.707 479.086 204.703 477.504 204.799 475.354C205.542 458.738 201.372 438.504 200.043 436.512C196.031 430.498 192.421 425.691 192.421 425.691C192.421 425.691 138.386 407.937 123.947 425.977L120.645 451.353Z" fill="#2F2E41"/>
<path d="M174.538 284.104L153.117 279.82L143.121 293.386C124.468 311.727 124.187 327.914 127.517 353.86V390.276L125.107 414.688C125.107 414.688 116.575 432.533 125.375 436.688C134.174 440.843 191.973 440.488 197.492 438.83C203.01 437.171 198.227 435.135 196.778 427.405C194.056 412.886 195.876 419.89 196.064 415.267C198.749 348.953 192.493 321.729 191.858 314.573L180.964 294.814L174.538 284.104Z" fill="#FDE100"/>
<path d="M287.439 337.571C285.207 341.801 279.968 343.42 275.738 341.188C275.287 340.95 274.857 340.672 274.455 340.359L228.195 369.732L228.328 353.74L273.267 327.661C276.468 324.072 281.972 323.758 285.561 326.959C288.564 329.637 289.34 334.024 287.439 337.571Z" fill="#A0616A"/>
<path d="M157.625 302.624L152.358 302.066C147.492 301.561 142.717 303.646 139.779 307.557C138.653 309.041 137.845 310.74 137.404 312.549L137.401 312.563C136.08 318.009 138.152 323.715 142.659 327.044L160.849 340.456C173.614 357.704 197.606 369.148 225.747 378.445L269.49 351.279L254.018 332.54L224.015 348.62L179.417 314.096L179.391 314.075L162.417 303.139L157.625 302.624Z" fill="#FDE100"/>
<path d="M167.3 273.585C181.096 273.585 192.28 262.401 192.28 248.605C192.28 234.809 181.096 223.625 167.3 223.625C153.504 223.625 142.32 234.809 142.32 248.605C142.32 262.401 153.504 273.585 167.3 273.585Z" fill="#A0616A"/>
<path d="M167.877 273.59C167.676 273.597 167.474 273.601 167.272 273.607C167.186 273.831 167.093 274.053 166.985 274.27L167.877 273.59Z" fill="#2F2E41"/>
<path d="M174.732 249.298C174.772 249.544 174.832 249.787 174.912 250.023C174.879 249.776 174.818 249.533 174.732 249.298Z" fill="#2F2E41"/>
<path d="M192.599 224.694C191.57 227.887 190.653 223.837 187.27 224.565C183.201 225.442 178.467 225.141 175.134 222.647C170.17 219.004 163.736 218.023 157.911 220.022C152.21 222.039 142.658 223.461 141.172 229.323C140.656 231.361 140.451 233.573 139.199 235.262C138.105 236.738 136.377 237.58 134.933 238.717C130.056 242.554 133.783 253.456 136.092 259.217C138.4 264.978 143.695 269.174 149.517 271.324C155.15 273.404 161.263 273.77 167.272 273.607C168.317 270.896 167.866 267.766 167.003 264.956C166.07 261.914 164.687 258.978 164.297 255.82C163.907 252.662 164.764 249.074 167.412 247.31C169.846 245.688 173.807 246.676 174.733 249.298C174.192 246.02 177.513 242.847 180.938 242.289C184.614 241.69 188.291 243.018 191.957 243.678C195.622 244.339 194.321 228.905 192.599 224.694Z" fill="#2F2E41"/>
<path d="M285.369 237.256C312.129 239.471 332.028 262.96 329.813 289.721C327.598 316.481 304.109 336.38 277.348 334.165C250.588 331.95 230.689 308.461 232.904 281.7C235.119 254.94 258.608 235.041 285.369 237.256Z" fill="#FDE100" stroke="black" stroke-width="5"/>
<path d="M294.787 264.411L281.359 277.839L267.93 264.411C265.757 262.237 262.232 262.237 260.059 264.411C257.885 266.584 257.885 270.109 260.059 272.282L273.487 285.711L260.059 299.139C257.887 301.315 257.89 304.839 260.066 307.011C262.239 309.179 265.757 309.179 267.93 307.011L281.359 293.582L294.787 307.011C296.963 309.182 300.487 309.179 302.659 307.003C304.827 304.83 304.827 301.312 302.659 299.139L289.23 285.711L302.659 272.282C304.832 270.109 304.832 266.584 302.659 264.411C300.485 262.237 296.961 262.237 294.787 264.411Z" fill="black"/>
<path d="M261.214 242.744C262.721 247.283 260.262 252.185 255.723 253.692C255.239 253.852 254.742 253.97 254.237 254.043L243.406 307.76L231.958 296.592L244.251 246.11C243.877 241.316 247.461 237.126 252.256 236.753C256.267 236.44 259.971 238.917 261.214 242.744Z" fill="#A0616A"/>
<path d="M146.125 312.225L142.076 315.639C138.343 318.801 136.542 323.689 137.33 328.518C137.621 330.357 138.288 332.116 139.288 333.687L139.296 333.699C142.311 338.423 147.863 340.878 153.386 339.931L175.656 336.089C196.941 338.819 221.808 329.429 247.999 315.558L258.679 265.186L234.446 263.377L225.278 296.16L169.49 304.442L169.457 304.446L149.814 309.123L146.125 312.225Z" fill="#FDE100"/>
<path d="M272.937 658.991L1.18684 659.298C0.529247 659.296 -0.00212362 658.761 6.38126e-06 658.104C0.00211638 657.449 0.532236 656.919 1.18684 656.917L272.937 656.609C273.594 656.612 274.126 657.146 274.124 657.804C274.122 658.458 273.591 658.989 272.937 658.991Z" fill="#F4F900"/>
<path d="M56.7769 90.7032C61.4474 90.7032 65.2335 86.8327 65.2335 82.0582C65.2335 77.2836 61.4474 73.4131 56.7769 73.4131C52.1065 73.4131 48.3203 77.2836 48.3203 82.0582C48.3203 86.8327 52.1065 90.7032 56.7769 90.7032Z" fill="#3F3D56"/>
<path d="M85.9908 90.7032C90.6612 90.7032 94.4474 86.8327 94.4474 82.0582C94.4474 77.2836 90.6612 73.4131 85.9908 73.4131C81.3203 73.4131 77.5342 77.2836 77.5342 82.0582C77.5342 86.8327 81.3203 90.7032 85.9908 90.7032Z" fill="#3F3D56"/>
<path d="M115.204 90.7032C119.875 90.7032 123.661 86.8327 123.661 82.0582C123.661 77.2836 119.875 73.4131 115.204 73.4131C110.534 73.4131 106.748 77.2836 106.748 82.0582C106.748 86.8327 110.534 90.7032 115.204 90.7032Z" fill="#3F3D56"/>
<path d="M148.516 88.8911C148.256 88.8911 147.997 88.7905 147.801 88.5903L142.095 82.7573C141.714 82.3687 141.714 81.7476 142.095 81.3589L147.801 75.5264C148.188 75.1318 148.822 75.1255 149.215 75.5107C149.61 75.897 149.617 76.5303 149.231 76.9248L144.209 82.0581L149.231 87.1919C149.617 87.5864 149.61 88.2197 149.215 88.606C149.021 88.7964 148.768 88.8911 148.516 88.8911Z" fill="#3F3D56"/>
<path d="M158.104 88.8909C157.852 88.8909 157.599 88.7961 157.405 88.6057C157.01 88.2195 157.003 87.5867 157.389 87.1916L162.411 82.0579L157.389 76.9246C157.003 76.53 157.01 75.8967 157.405 75.5105C157.799 75.1238 158.433 75.1311 158.819 75.5261L164.525 81.3586C164.905 81.7473 164.905 82.3684 164.525 82.7571L158.819 88.5901C158.623 88.7903 158.364 88.8909 158.104 88.8909Z" fill="#3F3D56"/>
<path d="M456.614 74.4141H446.004C444.794 74.4141 443.814 75.394 443.814 76.6041V87.2241C443.814 88.4341 444.794 89.4141 446.004 89.4141H456.614C457.824 89.4141 458.814 88.4341 458.814 87.2241V76.6041C458.814 75.394 457.824 74.4141 456.614 74.4141Z" fill="#3F3D56"/>
<path d="M430.614 74.4141H420.004C418.794 74.4141 417.814 75.394 417.814 76.6041V87.2241C417.814 88.4341 418.794 89.4141 420.004 89.4141H430.614C431.824 89.4141 432.814 88.4341 432.814 87.2241V76.6041C432.814 75.394 431.824 74.4141 430.614 74.4141Z" fill="#3F3D56"/>
<path d="M481.114 74.9141H470.504C469.294 74.9141 468.314 75.894 468.314 77.1041V87.7241C468.314 88.9341 469.294 89.9141 470.504 89.9141H481.114C482.324 89.9141 483.314 88.9341 483.314 87.7241V77.1041C483.314 75.894 482.324 74.9141 481.114 74.9141Z" fill="#3F3D56"/>
<path d="M321.192 78.9541H236.382C234.902 78.9541 233.712 80.1541 233.712 81.6241C233.712 83.0942 234.902 84.2941 236.382 84.2941H321.192C322.662 84.2941 323.862 83.0941 323.862 81.6241C323.862 80.1542 322.662 78.9541 321.192 78.9541Z" fill="#3F3D56"/>
</g>
<defs>
<clipPath id="clip0_1928_282">
<rect width="586.479" height="659.298" fill="white"/>
</clipPath>
</defs>
</svg>
